frontend/public/favicon.svg

<svg xmlns="http://www.w3.org/2000/svg" version="1.1" xmlns:xlink="http://www.w3.org/1999/xlink" width="256" height="234"><svg width="256" height="234" viewBox="0 0 256 234" fill="none" xmlns="http://www.w3.org/2000/svg">
<path d="M27.5325 145.158C27.5325 167.74 45.8709 186.047 68.4925 186.047H221.642L213.857 215.052C210.198 228.685 196.16 236.776 182.504 233.123L18.9799 189.382C5.32328 185.729 -2.78061 171.716 0.878694 158.083L27.5325 58.7783V145.158Z" fill="white"></path>
<path d="M75.2 40.5361C75.2 32.73 83.6106 27.8042 90.4362 31.6128L119.691 47.9383C126.682 51.8398 126.682 61.8835 119.691 65.7849L90.4362 82.1104C83.6106 85.9191 75.2 80.9933 75.2 73.1871V40.5361Z" fill="white"></path>
<path fill-rule="evenodd" clip-rule="evenodd" d="M230.4 0C244.538 3.16118e-05 256 11.4417 256 25.5558V145.668C256 159.561 244.894 170.865 231.061 171.215L230.4 171.224H67.84L67.1787 171.215C53.3458 170.865 42.24 159.561 42.24 145.668V25.5558C42.24 11.4417 53.7015 5.14516e-07 67.84 0H230.4ZM67.84 23.0002C66.4261 23.0002 65.28 24.1444 65.28 25.5558V124.294L94.455 96.2697C101.393 89.6051 112.367 89.6051 119.305 96.2697L133.771 110.166L169.72 64.139C178.432 52.9849 195.328 52.9848 204.04 64.139L232.96 101.166V25.5558C232.96 24.1444 231.814 23.0002 230.4 23.0002H67.84Z" fill="white"></path>
</svg><style>@media (prefers-color-scheme: light) { :root { filter: contrast(1) brightness(0.1); } }
@media (prefers-color-scheme: dark) { :root { filter: none; } }
</style></svg>

<svg xmlns="http://www.w3.org/2000/svg" width="256" height="234"><svg xmlns="http://www.w3.org/2000/svg" width="256" height="234" fill="none" viewBox="0 0 256 234"><path fill="#fff" d="M27.5 145.2a41 41 0 0 0 41 40.8h153.1l-7.7 29a25.6 25.6 0 0 1-31.4 18.1L19 189.4A25.6 25.6 0 0 1 .9 158l26.6-99.3v86.4ZM75.2 40.5c0-7.8 8.4-12.7 15.2-8.9L119.7 48c7 4 7 14 0 17.9L90.4 82a10.2 10.2 0 0 1-15.2-9V40.6Z"/><path fill="#fff" fill-rule="evenodd" d="M230.4 0A25.6 25.6 0 0 1 256 25.6v120a25.6 25.6 0 0 1-25 25.6H67.3a25.6 25.6 0 0 1-25-25.5V25.6A25.6 25.6 0 0 1 67.8 0h162.6ZM67.8 23a2.6 2.6 0 0 0-2.5 2.6v98.7l29.2-28a18 18 0 0 1 24.8 0l14.5 13.9 36-46a21.8 21.8 0 0 1 34.2 0l29 37V25.6c0-1.5-1.2-2.6-2.6-2.6H67.8Z" clip-rule="evenodd"/></svg><style>@media (prefers-color-scheme:light){:root{filter:contrast(1) brightness(.1)}}@media (prefers-color-scheme:dark){:root{filter:none}}</style></svg>
